X:1
L:1/8
M:6/8
K:C
 c/B/AB G2 B | G2 B gec | c/B/AB G2 B | A2 c c3 | c/B/AB G2 B | G2 B gec | c2 a B2 g | A2 B c3 :: 
 B2 c d2 g | d2 f gec | B2 c d2 f | e2 f g3 | g/f/ef d2 f | d2 f gec | c2 a B2 g | A2 B c3 :|
